assets/logo-bitgo-grey.svg

<svg height="40" viewBox="0 0 161 40" width="161" xmlns="http://www.w3.org/2000/svg"><g fill="#282138" fill-rule="evenodd"><path d="m17.102064 39.924s-17.10177778-5.8114286-17.10177778-27.14v-7.67714286c0-.83714285.65258667-1.51142857 1.47690667-1.57142857 3.10264889-.14571428 10.46714671-.77714286 15.62487111-3.53428571 5.1577244 2.75714285 12.5222222 3.38857143 15.6277333 3.53428571.82432.06 1.4740445.73428572 1.4740445 1.57142857v7.67714286c0 21.3285714-17.1017778 27.14-17.1017778 27.14zm3.2323076-23.482c-.0171734 2.22-3.4718756 1.9371429-4.58528 1.9285714l-.0057245-3.9257143c1.1105422.0085715 4.6053156-.32 4.5910045 1.9971429zm.8729777 6.1142857c-.0171733 2.4428572-4.1645333 2.1342857-5.5011911 2.1285714l-.0057244-4.3314285c1.3366578.0114285 5.5240889-.3428572 5.5069155 2.2028571zm2.8049778-6.9685714c-.2089422-2.3285714-2.2039111-3.1257143-4.7484267-3.3657143l.0143112-3.25428571-1.9720712.00857142.0085867 3.14857139c-.5180622-.0057142-1.0761955.0028572-1.6028444.0085715l.0028622-3.18857146-1.9863822.00857143.0143111 3.22857143c-.4293334.0057143-3.97276447.0142857-3.97276447.0142857l-.00286222 2.0657143 2.52161779-.0057143-.0057245 10.3857143-2.2096355.0114286-.0171733 2.3657143s3.1198222-.0114286 3.58064-.0057143l.0085866 3.2657143 1.9491734.0114285.0114488-3.2285714c.54096.0142857 1.0618845.0228571 1.57136.0257143l-.0057244 3.22 1.9863822-.0028572-.0085866-3.2485714c3.3144533-.1657143 5.6385777-.98 5.9476977-4.0828571.2490134-2.5-.9187733-3.6228572-2.7963911-4.0885715 1.1448889-.5714285 1.8661689-1.5914285 1.7116089-3.2971428z"/><path d="m60.6739591 25.7597143c0-1.2885714-.4837155-2.1828572-1.4511467-2.68-.9674311-.4971429-2.2582933-.7457143-3.8725866-.7457143h-4.1788445v7.1142857h4.22464c.5838934 0 1.1935467-.0514286 1.8232356-.1542857.6325511-.1 1.2049955-.2857143 1.7173333-.5485714.5123378-.2628572.9302222-.6371429 1.2536534-1.12.3234311-.4828572.4837155-1.1028572.4837155-1.8657143m-1.0132267-12.3428572c0-1.0514285-.4007111-1.8228571-1.2078577-2.3028571-.8071467-.4857143-2.0035556-.7257143-3.5863645-.7257143h-3.6951289v6.4114286h4.0471823c1.4082133 0 2.5015822-.2857143 3.2772444-.8571429.7785244-.5714285 1.1649244-1.4114285 1.1649244-2.5257143m8.5380089 13.0457143c0 1.6971429-.3377422 3.1257143-1.0132266 4.2828572-.6726223 1.1542857-1.5684978 2.0857143-2.6847645 2.7885714-1.1134044.7028571-2.3813689 1.2085714-3.8038933 1.5142857-1.4225245.3057143-2.8822578.4628572-4.3763378.4628572h-12.4077333v-31.0971429h12.4077333c1.1992711 0 2.4328889.12571429 3.6951289.37428571 1.2593778.24857143 2.4042667.67428572 3.4318044 1.27142858 1.0246756.6 1.8604445 1.41428571 2.5073067 2.43714285.644 1.02571429.9674311 2.32857146.9674311 3.91142856 0 1.7285714-.4694044 3.1542857-1.4082133 4.2828572-.9388089 1.1257142-2.1695645 1.9371428-3.6951289 2.4371428v.0857143c.8815644.1485714 1.7087467.4171429 2.4872711.8142857.7756622.3942857 1.4511467.9 2.0235911 1.5142857.5695822.6142857 1.0246756 1.3342857 1.3624178 2.1514286.3377422.82.5066133 1.7428571.5066133 2.7685714"/><path d="m70.4564622 35.5094286h7.2156622v-21.8714286h-7.2156622zm7.7423111-28.85428574c0 .55428571-.1087644 1.07428571-.3291555 1.56-.2203911.48-.5123378.89714285-.8787022 1.24857143-.3692267.35428571-.8071467.63142861-1.3223467.83428571-.5123378.2057143-1.0475733.3085714-1.6057067.3085714-1.1735111 0-2.1552533-.3857143-2.9452266-1.16285711-.7928356-.77714286-1.1878223-1.70571429-1.1878223-2.78857143 0-.52857143.1001778-1.03428572.3062578-1.51714286s.4980267-.9.8815645-1.25142857c.3778133-.35142857.8185955-.63714286 1.3194844-.85428572.4980267-.22285714 1.0389867-.33142857 1.6257422-.33142857.5581334 0 1.0933689.10285715 1.6057067.30857143.5152.20571429.95312.48285714 1.3223467.83428572.3663644.35142857.6583111.76857142.8787022 1.25142857.2203911.48285714.3291555 1.00285714.3291555 1.56z"/><path d="m90.7510489 18.9962857v8.3771429c0 1.0285714.1974933 1.8.5953422 2.3142857.3949867.5142857 1.1048178.7714286 2.1323556.7714286.3520533 0 .7270044-.0285715 1.1219911-.0885715.3949866-.06.7270044-.1457143.9903289-.2628571l.0887289 5.2685714c-.5008889.1771429-1.1305778.3314286-1.8919289.4628572-.7642134.1314285-1.5284267.1971428-2.2897778.1971428-1.4654578 0-2.6990756-.1828571-3.6951289-.5514286-.9960533-.3657142-1.7974756-.8942857-2.3985422-1.5828571-.6010667-.6914286-1.0332622-1.5142857-1.2965867-2.4657143-.2661867-.9542857-.3949867-2.02-.3949867-3.1942857v-9.2457143h-3.5205333v-5.3571428h3.4747378v-5.75428576h7.084v5.75428576h5.1462755v5.3571428z"/><path d="m122.011954 35.5534286c-2.037902.4971428-4.261849.7457143-6.666116.7457143-2.492995 0-4.788498-.3942858-6.886506-1.1857143-2.098009-.7885715-3.901209-1.9028572-5.4096-3.3371429-1.511254-1.4342857-2.693352-3.1542857-3.5434316-5.16-.85008-2.0057143-1.2765511-4.2371428-1.2765511-6.6971428 0-2.4885715.4321956-4.7428572 1.2994489-6.7657143.8643908-2.02 2.0607998-3.74000003 3.5835018-5.16000003 1.525565-1.42 3.317316-2.50857143 5.369529-3.27142857 2.052214-.76285714 4.267574-1.14285714 6.643218-1.14285714 2.464373 0 4.751289.37428571 6.863609 1.12 2.11232.74571428 3.829653 1.74857143 5.149138 3.00857143l-4.751289 5.40285711c-.735591-.8485714-1.703022-1.5457143-2.905156-2.0857143-1.202133-.5428571-2.567413-.8142857-4.092977-.8142857-1.319485 0-2.535929.2428572-3.652196.7257143-1.113404.4828572-2.080836 1.1571429-2.902293 2.02-.821458.8657143-1.459734 1.8885714-1.914827 3.0742857s-.681209 2.4828572-.681209 3.8885715c0 1.4342857.20608 2.7514285.615378 3.9514285.41216 1.2028572 1.018951 2.2342857 1.826098 3.0971429.807146.8628571 1.806062 1.5371428 2.991022 2.02 1.187822.4828571 2.544515.7257143 4.072942.7257143.878702 0 1.714471-.0657143 2.507307-.2.789973-.1314286 1.522702-.3428572 2.198186-.6342857v-5.6657143h-5.939111v-6.0628572h12.848516v16.4714286c-1.528427.7914286-3.308729 1.4342857-5.346631 1.9314286"/><path d="m147.534389 24.486c0-.7028571-.117351-1.3914286-.352053-2.0657143-.234702-.6714286-.572444-1.2657143-1.010364-1.7771428-.440783-.5114286-.984605-.9285715-1.628605-1.2514286-.646862-.3228572-1.393902-.4828572-2.243982-.4828572s-1.599982.16-2.243982.4828572c-.644.3228571-1.182098.74-1.605707 1.2514286-.426471.5114285-.749902 1.1057142-.967431 1.7771428-.220391.6742857-.332018 1.3628572-.332018 2.0657143s.111627 1.3914286.332018 2.0628571c.217529.6742858.549547 1.2828572.987467 1.8228572.440782.5428571.984604.9742857 1.628604 1.2971428.644.3228572 1.393902.4828572 2.246844.4828572.847218 0 1.59712-.16 2.24112-.4828572.644-.3228571 1.187823-.7542857 1.628605-1.2971428.440782-.54.769938-1.1485714.990329-1.8228572.220391-.6714285.329155-1.36.329155-2.0628571m6.952338 0c0 1.7857143-.323431 3.4028571-.967431 4.8542857-.646862 1.4485714-1.525564 2.6771429-2.641831 3.6885714-1.113405 1.0085715-2.404267 1.7942858-3.869725 2.3485715-1.46832.5571428-3.036817.8342857-4.708355.8342857-1.642916 0-3.205689-.2771429-4.685458-.8342857-1.482631-.5542857-2.773493-1.34-3.872587-2.3485715-1.099093-1.0114285-1.972071-2.24-2.616071-3.6885714-.646862-1.4514286-.970293-3.0685714-.970293-4.8542857s.323431-3.3971429.970293-4.8314286c.644-1.4342857 1.516978-2.6485714 2.616071-3.6457143 1.099094-.9942857 2.389956-1.7571428 3.872587-2.2828571 1.479769-.5285714 3.042542-.7914286 4.685458-.7914286 1.671538 0 3.240035.2628572 4.708355.7914286 1.465458.5257143 2.75632 1.2885714 3.869725 2.2828571 1.116267.9971429 1.994969 2.2114286 2.641831 3.6457143.644 1.4342857.967431 3.0457143.967431 4.8314286"/><path d="m157.606549 33.5442857h.526649c.538098 0 .712694-.1542857.712694-.4714286 0-.2742857-.134525-.4285714-.641138-.4285714h-.598205zm0 1.6114286h-.443644v-2.8742857h1.101955c.689796 0 1.024676.2542857 1.024676.82 0 .5171428-.323431.74-.752764.7914285l.821457 1.2628572h-.486577l-.767076-1.2485714h-.498027zm.532374-3.5257143c-1.1592 0-2.055076.8914286-2.055076 2.0828571 0 1.2142858.895876 2.0942858 2.055076 2.0942858 1.144889 0 2.037902-.88 2.037902-2.0942858 0-1.1914285-.893013-2.0828571-2.037902-2.0828571zm0-.4057143c1.359555 0 2.52448 1.0571429 2.52448 2.4885714 0 1.4428572-1.164925 2.5-2.52448 2.5-1.373867 0-2.538791-1.0571428-2.538791-2.5 0-1.4314285 1.164924-2.4885714 2.538791-2.4885714z"/></g></svg>

<?xml version="1.0" encoding="UTF-8"?>
<svg width="161px" height="40px" viewBox="0 0 161 40" version="1.1" xmlns="http://www.w3.org/2000/svg" xmlns:xlink="http://www.w3.org/1999/xlink">
    <!-- Generator: Sketch 52.2 (67145) - http://www.bohemiancoding.com/sketch -->
    <title>Logo</title>
    <desc>Created with Sketch.</desc>
    <g id="Designs" stroke="none" stroke-width="1" fill="none" fill-rule="evenodd">
        <g id="Home" transform="translate(-1121.000000, -4064.000000)" fill="#282138">
            <g id="JOIN-THE-WBTC-COMMUNITY" transform="translate(0.000000, 3815.000000)">
                <g id="SECTION---JOIN-THE-WBTC-COMMUNITY" transform="translate(130.000000, 85.000000)">
                    <g id="Logo-DDEX-Copy" transform="translate(960.000000, 136.000000)">
                        <g id="Logo" transform="translate(31.000000, 28.000000)">
                            <path d="M17.102064,39.924 C17.102064,39.924 0.000286222223,34.1125714 0.000286222223,12.784 L0.000286222223,5.10685714 C0.000286222223,4.26971429 0.652872889,3.59542857 1.47719289,3.53542857 C4.57984178,3.38971429 11.9443396,2.75828571 17.102064,0.00114285714 C22.2597884,2.75828571 29.6242862,3.38971429 32.7297973,3.53542857 C33.5541173,3.59542857 34.2038418,4.26971429 34.2038418,5.10685714 L34.2038418,12.784 C34.2038418,34.1125714 17.102064,39.924 17.102064,39.924 Z M20.3343716,16.442 C20.3171982,18.662 16.862496,18.3791429 15.7490916,18.3705714 L15.7433671,14.4448571 C16.8539093,14.4534286 20.3486827,14.1248571 20.3343716,16.442 Z M21.2073493,22.5562857 C21.190176,24.9991429 17.042816,24.6905714 15.7061582,24.6848571 L15.7004338,20.3534286 C17.0370916,20.3648571 21.2245227,20.0105714 21.2073493,22.5562857 Z M24.0123271,15.5877143 C23.8033849,13.2591429 21.808416,12.462 19.2639004,12.222 L19.2782116,8.96771429 L17.3061404,8.97628571 L17.3147271,12.1248571 C16.7966649,12.1191429 16.2385316,12.1277143 15.7118827,12.1334286 L15.7147449,8.94485714 L13.7283627,8.95342857 L13.7426738,12.182 C13.3133404,12.1877143 9.76990933,12.1962857 9.76990933,12.1962857 L9.76704711,14.262 L12.2886649,14.2562857 L12.2829404,24.642 L10.0733049,24.6534286 L10.0561316,27.0191429 C10.0561316,27.0191429 13.1759538,27.0077143 13.6367716,27.0134286 L13.6453582,30.2791429 L15.5945316,30.2905714 L15.6059804,27.062 C16.1469404,27.0762857 16.6678649,27.0848571 17.1773404,27.0877143 L17.171616,30.3077143 L19.1579982,30.3048571 L19.1494116,27.0562857 C22.4638649,26.8905714 24.7879893,26.0762857 25.0971093,22.9734286 C25.3461227,20.4734286 24.178336,19.3505714 22.3007182,18.8848571 C23.4456071,18.3134286 24.1668871,17.2934286 24.0123271,15.5877143 Z" id="Combined-Shape"></path>
                            <path d="M60.6739591,25.7597143 C60.6739591,24.4711429 60.1902436,23.5768571 59.2228124,23.0797143 C58.2553813,22.5825714 56.9645191,22.334 55.3502258,22.334 L51.1713813,22.334 L51.1713813,29.4482857 L55.3960213,29.4482857 C55.9799147,29.4482857 56.589568,29.3968571 57.2192569,29.294 C57.851808,29.194 58.4242524,29.0082857 58.9365902,28.7454286 C59.448928,28.4825714 59.8668124,28.1082857 60.1902436,27.6254286 C60.5136747,27.1425714 60.6739591,26.5225714 60.6739591,25.7597143 M59.6607324,13.4168571 C59.6607324,12.3654286 59.2600213,11.594 58.4528747,11.114 C57.645728,10.6282857 56.4493191,10.3882857 54.8665102,10.3882857 L51.1713813,10.3882857 L51.1713813,16.7997143 L55.2185636,16.7997143 C56.6267769,16.7997143 57.7201458,16.514 58.495808,15.9425714 C59.2743324,15.3711429 59.6607324,14.5311429 59.6607324,13.4168571 M68.1987413,26.4625714 C68.1987413,28.1597143 67.8609991,29.5882857 67.1855147,30.7454286 C66.5128924,31.8997143 65.6170169,32.8311429 64.5007502,33.534 C63.3873458,34.2368571 62.1193813,34.7425714 60.6968569,35.0482857 C59.2743324,35.354 57.8145991,35.5111429 56.3205191,35.5111429 L43.9127858,35.5111429 L43.9127858,4.414 L56.3205191,4.414 C57.5197902,4.414 58.753408,4.53971429 60.015648,4.78828571 C61.2750258,5.03685714 62.4199147,5.46257143 63.4474524,6.05971429 C64.472128,6.65971429 65.3078969,7.474 65.9547591,8.49685714 C66.5987591,9.52257143 66.9221902,10.8254286 66.9221902,12.4082857 C66.9221902,14.1368571 66.4527858,15.5625714 65.5139769,16.6911429 C64.575168,17.8168571 63.3444124,18.6282857 61.818848,19.1282857 L61.818848,19.214 C62.7004124,19.3625714 63.5275947,19.6311429 64.3061191,20.0282857 C65.0817813,20.4225714 65.7572658,20.9282857 66.3297102,21.5425714 C66.8992924,22.1568571 67.3543858,22.8768571 67.692128,23.694 C68.0298702,24.514 68.1987413,25.4368571 68.1987413,26.4625714" id="Fill-6"></path>
                            <path d="M70.4564622,35.5094286 L77.6721244,35.5094286 L77.6721244,13.638 L70.4564622,13.638 L70.4564622,35.5094286 Z M78.1987733,6.65514286 C78.1987733,7.20942857 78.0900089,7.72942857 77.8696178,8.21514286 C77.6492267,8.69514286 77.35728,9.11228571 76.9909156,9.46371429 C76.6216889,9.818 76.1837689,10.0951429 75.6685689,10.298 C75.1562311,10.5037143 74.6209956,10.6065714 74.0628622,10.6065714 C72.8893511,10.6065714 71.9076089,10.2208571 71.1176356,9.44371429 C70.3248,8.66657143 69.9298133,7.738 69.9298133,6.65514286 C69.9298133,6.12657143 70.0299911,5.62085714 70.2360711,5.138 C70.4421511,4.65514286 70.7340978,4.238 71.1176356,3.88657143 C71.4954489,3.53514286 71.9362311,3.24942857 72.43712,3.03228571 C72.9351467,2.80942857 73.4761067,2.70085714 74.0628622,2.70085714 C74.6209956,2.70085714 75.1562311,2.80371429 75.6685689,3.00942857 C76.1837689,3.21514286 76.6216889,3.49228571 76.9909156,3.84371429 C77.35728,4.19514286 77.6492267,4.61228571 77.8696178,5.09514286 C78.0900089,5.578 78.1987733,6.098 78.1987733,6.65514286 Z" id="Fill-8"></path>
                            <path d="M90.7510489,18.9962857 L90.7510489,27.3734286 C90.7510489,28.402 90.9485422,29.1734286 91.3463911,29.6877143 C91.7413778,30.202 92.4512089,30.4591429 93.4787467,30.4591429 C93.8308,30.4591429 94.2057511,30.4305714 94.6007378,30.3705714 C94.9957244,30.3105714 95.3277422,30.2248571 95.5910667,30.1077143 L95.6797956,35.3762857 C95.1789067,35.5534286 94.5492178,35.7077143 93.7878667,35.8391429 C93.0236533,35.9705714 92.25944,36.0362857 91.4980889,36.0362857 C90.0326311,36.0362857 88.7990133,35.8534286 87.80296,35.4848571 C86.8069067,35.1191429 86.0054844,34.5905714 85.4044178,33.902 C84.8033511,33.2105714 84.3711556,32.3877143 84.1078311,31.4362857 C83.8416444,30.482 83.7128444,29.4162857 83.7128444,28.242 L83.7128444,18.9962857 L80.1923111,18.9962857 L80.1923111,13.6391429 L83.6670489,13.6391429 L83.6670489,7.88485714 L90.7510489,7.88485714 L90.7510489,13.6391429 L95.8973244,13.6391429 L95.8973244,18.9962857 L90.7510489,18.9962857 Z" id="Fill-10"></path>
                            <path d="M122.011954,35.5534286 C119.974052,36.0505714 117.750105,36.2991429 115.345838,36.2991429 C112.852843,36.2991429 110.55734,35.9048571 108.459332,35.1134286 C106.361323,34.3248571 104.558123,33.2105714 103.049732,31.7762857 C101.538478,30.342 100.35638,28.622 99.5063004,26.6162857 C98.6562204,24.6105714 98.2297493,22.3791429 98.2297493,19.9191429 C98.2297493,17.4305714 98.6619449,15.1762857 99.5291982,13.1534286 C100.393589,11.1334286 101.589998,9.41342857 103.1127,7.99342857 C104.638265,6.57342857 106.430016,5.48485714 108.482229,4.722 C110.534443,3.95914286 112.749803,3.57914286 115.125447,3.57914286 C117.58982,3.57914286 119.876736,3.95342857 121.989056,4.69914286 C124.101376,5.44485714 125.818709,6.44771429 127.138194,7.70771429 L122.386905,13.1105714 C121.651314,12.262 120.683883,11.5648571 119.481749,11.0248571 C118.279616,10.482 116.914336,10.2105714 115.388772,10.2105714 C114.069287,10.2105714 112.852843,10.4534286 111.736576,10.9362857 C110.623172,11.4191429 109.65574,12.0934286 108.834283,12.9562857 C108.012825,13.822 107.374549,14.8448571 106.919456,16.0305714 C106.464363,17.2162857 106.238247,18.5134286 106.238247,19.9191429 C106.238247,21.3534286 106.444327,22.6705714 106.853625,23.8705714 C107.265785,25.0734286 107.872576,26.1048571 108.679723,26.9677143 C109.486869,27.8305714 110.485785,28.5048571 111.670745,28.9877143 C112.858567,29.4705714 114.21526,29.7134286 115.743687,29.7134286 C116.622389,29.7134286 117.458158,29.6477143 118.250994,29.5134286 C119.040967,29.382 119.773696,29.1705714 120.44918,28.8791429 L120.44918,23.2134286 L114.510069,23.2134286 L114.510069,17.1505714 L127.358585,17.1505714 L127.358585,33.622 C125.830158,34.4134286 124.049856,35.0562857 122.011954,35.5534286" id="Fill-11"></path>
                            <path d="M147.534389,24.486 C147.534389,23.7831429 147.417038,23.0945714 147.182336,22.4202857 C146.947634,21.7488571 146.609892,21.1545714 146.171972,20.6431429 C145.731189,20.1317143 145.187367,19.7145714 144.543367,19.3917143 C143.896505,19.0688571 143.149465,18.9088571 142.299385,18.9088571 C141.449305,18.9088571 140.699403,19.0688571 140.055403,19.3917143 C139.411403,19.7145714 138.873305,20.1317143 138.449696,20.6431429 C138.023225,21.1545714 137.699794,21.7488571 137.482265,22.4202857 C137.261874,23.0945714 137.150247,23.7831429 137.150247,24.486 C137.150247,25.1888571 137.261874,25.8774286 137.482265,26.5488571 C137.699794,27.2231429 138.031812,27.8317143 138.469732,28.3717143 C138.910514,28.9145714 139.454336,29.346 140.098336,29.6688571 C140.742336,29.9917143 141.492238,30.1517143 142.34518,30.1517143 C143.192398,30.1517143 143.9423,29.9917143 144.5863,29.6688571 C145.2303,29.346 145.774123,28.9145714 146.214905,28.3717143 C146.655687,27.8317143 146.984843,27.2231429 147.205234,26.5488571 C147.425625,25.8774286 147.534389,25.1888571 147.534389,24.486 M154.486727,24.486 C154.486727,26.2717143 154.163296,27.8888571 153.519296,29.3402857 C152.872434,30.7888571 151.993732,32.0174286 150.877465,33.0288571 C149.76406,34.0374286 148.473198,34.8231429 147.00774,35.3774286 C145.53942,35.9345714 143.970923,36.2117143 142.299385,36.2117143 C140.656469,36.2117143 139.093696,35.9345714 137.613927,35.3774286 C136.131296,34.8231429 134.840434,34.0374286 133.74134,33.0288571 C132.642247,32.0174286 131.769269,30.7888571 131.125269,29.3402857 C130.478407,27.8888571 130.154976,26.2717143 130.154976,24.486 C130.154976,22.7002857 130.478407,21.0888571 131.125269,19.6545714 C131.769269,18.2202857 132.642247,17.006 133.74134,16.0088571 C134.840434,15.0145714 136.131296,14.2517143 137.613927,13.726 C139.093696,13.1974286 140.656469,12.9345714 142.299385,12.9345714 C143.970923,12.9345714 145.53942,13.1974286 147.00774,13.726 C148.473198,14.2517143 149.76406,15.0145714 150.877465,16.0088571 C151.993732,17.006 152.872434,18.2202857 153.519296,19.6545714 C154.163296,21.0888571 154.486727,22.7002857 154.486727,24.486" id="Fill-12"></path>
                            <path d="M157.606549,33.5442857 L158.133198,33.5442857 C158.671296,33.5442857 158.845892,33.39 158.845892,33.0728571 C158.845892,32.7985714 158.711367,32.6442857 158.204754,32.6442857 L157.606549,32.6442857 L157.606549,33.5442857 Z M157.606549,35.1557143 L157.162905,35.1557143 L157.162905,32.2814286 L158.26486,32.2814286 C158.954656,32.2814286 159.289536,32.5357143 159.289536,33.1014286 C159.289536,33.6185714 158.966105,33.8414286 158.536772,33.8928571 L159.358229,35.1557143 L158.871652,35.1557143 L158.104576,33.9071429 L157.606549,33.9071429 L157.606549,35.1557143 Z M158.138923,31.63 C156.979723,31.63 156.083847,32.5214286 156.083847,33.7128571 C156.083847,34.9271429 156.979723,35.8071429 158.138923,35.8071429 C159.283812,35.8071429 160.176825,34.9271429 160.176825,33.7128571 C160.176825,32.5214286 159.283812,31.63 158.138923,31.63 Z M158.138923,31.2242857 C159.498478,31.2242857 160.663403,32.2814286 160.663403,33.7128571 C160.663403,35.1557143 159.498478,36.2128571 158.138923,36.2128571 C156.765056,36.2128571 155.600132,35.1557143 155.600132,33.7128571 C155.600132,32.2814286 156.765056,31.2242857 158.138923,31.2242857 Z" id="Fill-13"></path>
                        </g>
                    </g>
                </g>
            </g>
        </g>
    </g>
</svg>
